src/svg/monochrome/24/inactive.svg

<svg width="24" height="24" viewBox="0 0 24 24" fill="none" xmlns="http://www.w3.org/2000/svg">
<g id="inactive">
<path id="Vector (Stroke)" d="M13.7571 20.8286C14.1634 20.7482 14.5585 21.0126 14.6389 21.4189C14.7192 21.8252 14.4548 22.2196 14.0486 22.3C13.3855 22.4312 12.7003 22.5 12 22.5C11.2997 22.5 10.6145 22.4312 9.95142 22.3C9.54525 22.2196 9.2808 21.8252 9.36108 21.4189C9.44147 21.0126 9.83658 20.7482 10.2429 20.8286C10.8106 20.9409 11.398 21 12 21C12.602 21 13.1894 20.9409 13.7571 20.8286ZM3.47534 16.7937C3.79798 16.578 4.22702 16.6459 4.46924 16.9387L4.51538 17.0002L4.771 17.3613C5.29867 18.0716 5.92845 18.7013 6.63867 19.229L6.99976 19.4846L7.06128 19.5308C7.35405 19.773 7.42202 20.202 7.2063 20.5247C6.9903 20.8473 6.56705 20.9491 6.23145 20.7708L6.16553 20.7312L5.95239 20.5847C4.96858 19.8905 4.10952 19.0314 3.41528 18.0476L3.2688 17.8345L3.22925 17.7686C3.0509 17.433 3.15271 17.0097 3.47534 16.7937ZM19.5308 16.9387C19.773 16.6459 20.202 16.578 20.5247 16.7937C20.8688 17.0241 20.9615 17.4903 20.7312 17.8345L20.5847 18.0476C19.8408 19.1018 18.9076 20.0128 17.8345 20.7312L17.7686 20.7708C17.433 20.9491 17.0097 20.8473 16.7937 20.5247C16.5636 20.1805 16.6562 19.715 17.0002 19.4846L17.3613 19.229C18.1899 18.6134 18.9095 17.8593 19.4846 17.0002L19.5308 16.9387ZM1.5 12C1.5 11.2997 1.56877 10.6145 1.69995 9.95142C1.78043 9.54525 2.17484 9.2808 2.58105 9.36108C2.98739 9.44147 3.25177 9.83658 3.17139 10.2429C3.05909 10.8106 3 11.398 3 12C3 12.602 3.05909 13.1894 3.17139 13.7571C3.25177 14.1634 2.98739 14.5585 2.58105 14.6389C2.17484 14.7192 1.78043 14.4548 1.69995 14.0486C1.56877 13.3855 1.5 12.7003 1.5 12ZM21 12C21 11.398 20.9409 10.8106 20.8286 10.2429L22.3 9.95142C22.4312 10.6145 22.5 11.2997 22.5 12C22.5 12.7003 22.4312 13.3855 22.3 14.0486C22.2196 14.4548 21.8252 14.7192 21.4189 14.6389C21.0126 14.5585 20.7482 14.1634 20.8286 13.7571C20.9409 13.1894 21 12.602 21 12ZM21.4189 9.36108C21.8252 9.2808 22.2196 9.54525 22.3 9.95142L20.8286 10.2429C20.7482 9.83658 21.0126 9.44147 21.4189 9.36108ZM6.23145 3.22925C6.56705 3.0509 6.9903 3.15271 7.2063 3.47534C7.4364 3.8195 7.34382 4.28503 6.99976 4.51538L6.63867 4.771C5.81015 5.38656 5.09051 6.14072 4.51538 6.99976L4.46924 7.06128C4.22702 7.35405 3.79798 7.42202 3.47534 7.2063C3.13118 6.97589 3.03846 6.50971 3.2688 6.16553L3.41528 5.95239C4.15917 4.89822 5.09244 3.98721 6.16553 3.2688L6.23145 3.22925ZM16.7937 3.47534C17.0097 3.15271 17.433 3.0509 17.7686 3.22925L17.8345 3.2688L18.0476 3.41528C19.0314 4.10952 19.8905 4.96858 20.5847 5.95239L20.7312 6.16553L20.7708 6.23145C20.9491 6.56705 20.8473 6.9903 20.5247 7.2063C20.202 7.42202 19.773 7.35405 19.5308 7.06128L19.4846 6.99976L19.229 6.63867C18.7013 5.92845 18.0716 5.29867 17.3613 4.771L17.0002 4.51538L16.9387 4.46924C16.6459 4.22702 16.578 3.79798 16.7937 3.47534ZM12 1.5C12.7003 1.5 13.3855 1.56877 14.0486 1.69995C14.4548 1.78043 14.7192 2.17484 14.6389 2.58105C14.5585 2.98739 14.1634 3.25177 13.7571 3.17139C13.1894 3.05909 12.602 3 12 3C11.398 3 10.8106 3.05909 10.2429 3.17139C9.83658 3.25177 9.44147 2.98739 9.36108 2.58105C9.2808 2.17484 9.54525 1.78042 9.95142 1.69995C10.6145 1.56877 11.2997 1.5 12 1.5Z" fill="#3D3C3C"/>
</g>
</svg>

<svg xmlns="http://www.w3.org/2000/svg" width="24" height="24" fill="currentColor" viewBox="0 0 24 24">
  <path d="M13.757 20.829a.75.75 0 0 1 .292 1.471 10.548 10.548 0 0 1-4.098 0 .75.75 0 1 1 .292-1.471 9.047 9.047 0 0 0 3.514 0ZM3.475 16.794a.75.75 0 0 1 .994.145l.046.061.256.361a9.055 9.055 0 0 0 1.868 1.868l.36.256.062.046a.75.75 0 0 1-.83 1.24l-.065-.04-.214-.146a10.555 10.555 0 0 1-2.537-2.537l-.146-.213-.04-.066a.75.75 0 0 1 .246-.975Zm16.056.145a.75.75 0 0 1 1.2.895l-.146.214a10.555 10.555 0 0 1-2.75 2.683l-.066.04A.751.751 0 0 1 17 19.485l.361-.256A9.052 9.052 0 0 0 19.485 17l.046-.061ZM1.5 12c0-.7.069-1.386.2-2.049a.75.75 0 1 1 1.471.292 9.047 9.047 0 0 0 0 3.514.75.75 0 0 1-1.471.292A10.55 10.55 0 0 1 1.5 12ZM21 12c0-.602-.06-1.19-.171-1.757L22.3 9.95a10.548 10.548 0 0 1 0 4.098.75.75 0 1 1-1.471-.292A9.047 9.047 0 0 0 21 12Zm.419-2.639a.75.75 0 0 1 .881.59l-1.471.292a.75.75 0 0 1 .59-.882ZM6.23 3.23A.75.75 0 0 1 7 4.515l-.361.256A9.054 9.054 0 0 0 4.515 7l-.046.061a.75.75 0 0 1-1.2-.895l.146-.214a10.555 10.555 0 0 1 2.75-2.683l.066-.04Zm10.563.246a.75.75 0 0 1 .975-.246l.066.04.213.146a10.555 10.555 0 0 1 2.537 2.537l.146.214.04.065a.75.75 0 0 1-1.24.83L19.485 7l-.256-.361a9.055 9.055 0 0 0-1.868-1.868l-.36-.256-.062-.046a.75.75 0 0 1-.145-.994ZM12 1.5c.7 0 1.386.069 2.049.2a.75.75 0 1 1-.292 1.471 9.047 9.047 0 0 0-3.514 0A.75.75 0 0 1 9.95 1.7 10.55 10.55 0 0 1 12 1.5Z"/>
</svg>
